X: 205
T:Mrs McPherson's Reel -- Gibston
B:William Marshall's Scottish Airs, Melodies, Strathspeys, Reels &c (1822)
C:William Marshall
L:1/8
M:C|
O:Scotland
R:Reel
Z:Clark Bernst + Richard Robinson
%%Page:28 - 3
F:http://richardrobinson.tunebook.org.uk/tune/4048
%%TBL:{"version":1,"type":"tune","id":"4048"}
K:C minor
%%staves {1 2}
V:1
G | \
(cd)ed !=!~c2 Gc | BdGB FBDB, |1 (cd)ed !=!~c2 eg | dBfd c/c/c c :|2 (gf)ed (ed)cB | GBFD C/C/C C |]
G | \
(cd)(eg) cgeg | (Bc)de (fb)dB |1 (cd)(ef) gcec | dBfd c/c/c c :|2 (gf)ed (ed)cB | GBFD C/C/C C |]
V:2 middle=d clef=bass
L:1/4
z/ | cccc | dedB | cccc | GGcc/ :| cccc | GGcc/ |] \
z/ | c'ccc | bBbb | c'c'ce | fgcc/ :| c'ccc | gGcc/ |]

